!!!!SEGMENT: pl-kk--kk-i-382--055_troschel--pod-twa-obrone-ojcze.krn
!!!id: 18xx:1557
!!!COM: Troschel
!!!COM-rism: pe50046073
!!!CDT:
!!!CNT:
!!!OTL: Pod twą obronę ojcze
!!!PDT:
!!!SMS-siglum: PL-Kk
!!!SMS-shelfmark: Kk.I.382
!!!NIFC-rismID: 1001140800
!!!URL-scan: http://repozytorium.nifc.pl/skany/pl-kk-nut--i-382
!!!ONB-nifc: UWAGA: obsada: S/T1, T2, B2. Skan 0040, 0111, 0259
!!!SMS-variant:
!!!SMS-altvar:
**kern	**text	**text	**dynam	**kern	**text	**text	**dynam	**kern	**text	**text	**dynam
*part3	*part3	*part3	*part3	*part2	*part2	*part2	*part2	*part1	*part1	*part1	*part1
*staff3	*staff3	*staff3	*	*staff2	*staff2	*staff2	*	*staff1	*staff1	*staff1	*
*I"Basso II	*	*	*	*I"Tenor II	*	*	*	*I"Soprano vel. Tenor I	*	*	*
*I'B.II	*	*	*	*I'T.II	*	*	*	*I'S./T.I	*	*	*
*clefF4	*	*	*	*clefG2	*	*	*	*clefG2	*	*	*
*k[f#c#g#d#]	*	*	*	*k[f#c#g#d#]	*	*	*	*k[f#c#g#d#]	*	*	*
*M4/4	*	*	*	*M4/4	*	*	*	*M4/4	*	*	*
*met(c)	*	*	*	*met(c)	*	*	*	*met(c)	*	*	*
=1	=1	=1	=1	=1	=1	=1	=1	=1	=1	=1	=1
*2\right	*	*	*	*	*	*	*	*	*	*	*
!LO:TX:t=P:problem:all\right:global	!	!	!LO:DY:rj	!LO:TX:t=P:problem:all\right:global	!	!	!LO:DY:rj	!LO:TX:t=P:problem:all\right:global	!	!	!LO:DY:rj
2E\	Pod	czy	p	2g#/	Pod	czy	p	2b/	Pod	czy	p
4E\	Twą	toń	.	4e/	Twą	toń	.	4g#/	Twą	toń	.
4E\	o-	spo-	.	4f#/	o-	spo-	.	4a/	o-	spo-	.
=2	=2	=2	=2	=2	=2	=2	=2	=2	=2	=2	=2
2E\	-bro-	-koj-	.	2g#/	-bro-	-koj-	.	2b/	-bro-	-koj-	.
2E\	-ne	-na	.	2g#/	-ne	-na	.	2b/	-ne	-na	.
=3	=3	=3	=3	=3	=3	=3	=3	=3	=3	=3	=3
2E\	Oj-	czy	.	2a/	Oj-	czy	.	2cc#/	Oj-	czy	.
4E\	-cze	chu-	.	4b/	-cze	chu-	.	4dd#/	-cze	chu-	.
4E\	na	-czą	.	4a/	na	-czą	.	4cc#/	na	-czą	.
=4	=4	=4	=4	=4	=4	=4	=4	=4	=4	=4	=4
2E\	nie-	fa-	.	2g#/	nie-	fa-	.	2b/	nie-	fa-	.
2E\	-bie	-le	.	2e/	-bie	-le	.	2g#/	-bie	-le	.
=5	=5	=5	=5	=5	=5	=5	=5	=5	=5	=5	=5
2BB\	gro-	gdy	.	2d#/	gro-	gdy	.	2f#/	gro-	gdy	.
4E\	-no	Ty	.	4g#/	-no	Ty	.	4g#/	-no	Ty	.
4E\	Twych	Twe	.	4f#/	Twych	Twe	.	4a#X/	Twych	Twe	.
=6	=6	=6	=6	=6	=6	=6	=6	=6	=6	=6	=6
2D#\	dzie-	dzie-	.	2f#/	dzie-	dzie-	.	2b/	dzie-	dzie-	.
2BB\	-ci	-ci	.	2f#/	-ci	-ci	.	2dd#/	-ci	-ci	.
!LO:LB:g=original	!	!	!	!LO:LB:g=original	!	!	!	!LO:LB:g=original	!	!	!
=7	=7	=7	=7	=7	=7	=7	=7	=7	=7	=7	=7
4E\	swój	w swej	.	4g#/	swój	w swej	.	4cc#/	swój	w swej	.
4D#\	po-	o-	.	4g#/	po-	o-	.	4dd#/	po-	o-	.
4C#\	-wie-	-pie-	.	4g#/	-wie-	-pie-	.	4ee/	-wie-	-pie-	.
4F#\	-rza	-ce	.	8f#\L	-rza	-ce	.	4a#X/	-rza	-ce	.
.	.	.	.	8e\J	.	.	.	.	.	.	.
=8	=8	=8	=8	=8	=8	=8	=8	=8	=8	=8	=8
2BB/	los	masz	.	2.d#/	los	masz	.	2b/	los	masz	.
2r	.	.	.	.	.	.	.	2r	.	.	.
.	.	.	.	4r	.	.	.	.	.	.	.
=9	=9	=9	=9	=9	=9	=9	=9	=9	=9	=9	=9
2BB\	Ty	Wzno-	.	2f#/	Ty	Wzno-	.	2dd#/	Ty	Wzno-	.
4BB\	nam	-si-	.	4a/	nam	-si-	.	4cc#/	nam	-si-	.
4BB\	bło-	-my	.	4a/	bło-	-my	.	4b/	bło-	-my	.
=10	=10	=10	=10	=10	=10	=10	=10	=10	=10	=10	=10
2BB\	-go-	mo-	.	2g#/	-go-	mo-	.	2ee/	-go-	mo-	.
2BB\	-sław	-dły	.	2g#/	-sław	-dły	.	2b/	-sław	-dły	.
=11	=11	=11	=11	=11	=11	=11	=11	=11	=11	=11	=11
2BB\	ra-	dziś	.	2a/	ra-	dziś	.	(4ff#/	ra-	dziś	.
.	.	.	.	.	.	.	.	4dd#/)	.	.	.
4C#\	-tur	ku	.	4a/	-tur	ku	.	4cc#/	-tur	ku	.
4D#\	w po-	Twej	.	4a/	w po-	Twej	.	4b/	w po-	Twej	.
=12	=12	=12	=12	=12	=12	=12	=12	=12	=12	=12	=12
2E\	-trze-	chwa-	.	2g#/	-trze-	chwa-	.	2cc#/	-trze-	chwa-	.
!	!	!	!	!	!	!	!	!LO:TX:t=P:problem:zapis poprawiany	!	!	!
!	!	!	!	!	!	!	!	!LO:TX:a:t=h	!	!	!
2E\	-bie	-le	.	2g#/	-bie	-le	.	2b/	-bie	-le	.
!LO:LB:g=original	!	!	!	!LO:LB:g=original	!	!	!	!LO:LB:g=original	!	!	!
=13	=13	=13	=13	=13	=13	=13	=13	=13	=13	=13	=13
2E\	I	Boś	.	2g#/	I	Boś	.	2ee/	I	Boś	.
4G#\	broń	Ty	.	4b/	broń	Ty	.	4ee/	broń	Ty	.
4B\	od	nam	.	4ddn/	od	nam	.	4ee/	od	nam	.
=14	=14	=14	=14	=14	=14	=14	=14	=14	=14	=14	=14
2A\	zgu-	tar-	.	2cc#/	zgu-	tar-	.	2ee/	zgu-	tar-	.
2AA/	-by	-czą	.	2a/	-by	-czą	.	2cc#/	-by	-czą	.
=15	=15	=15	=15	=15	=15	=15	=15	=15	=15	=15	=15
4BB/	gdy	Bo-	.	4g#/	gdy	Bo-	.	4b/	gdy	Bo-	.
4BB/	za-	-że	.	4g#/	za-	-że	.	4ee/	za-	-że	.
4BB/	-gra-	Oj-	.	4f#/	-gra-	Oj-	.	4dd#/	-gra-	Oj-	.
4BB/	-za	-cze	.	4a/	-za	-cze	.	4ff#/	-za	-cze	.
=16	=16	=16	=16	=16	=16	=16	=16	=16	=16	=16	=16
2E\	cios	nasz	.	2g#/	cios	nasz	.	2ee/	cios	nasz	.
2r	.	.	.	2r	.	.	.	2r	.	.	.
!LO:TX:b:t=H Napelski 12/9 94r	!	!	!	!	!	!	!	!	!	!	!
==	==	==	==	==	==	==	==	==	==	==	==
*-	*-	*-	*-	*-	*-	*-	*-	*-	*-	*-	*-
!!!system-decoration: [(s1,s2,s3)]
!!!EED: Leszek Kubiak
!!!EST: 2021-02-11
!!!ENC: Andrzej Gręziak
!!!END: 2021-01-31
